X: 1
T:the North Country Lass
M:6/8
O:England
A:North-West
R:Jig
K:D
a|\
abg fge| dcd ecA| ABA ABA| def e2a|\
abg fge| dcd ecA| ABc dgf| edc d2::
A|\
d2g b3| d2f afd| dgb bag| dfa afd|\
gab gfe| fga fed| Bgb abg| fge d2:|
